app/client/src/assets/icons/blueprintjs/16px/filter-remove.svg

<svg xmlns="http://www.w3.org/2000/svg" xml:space="preserve" viewBox="0 0 16 16"><path fill-rule="evenodd" d="M12 2c0-.55-.45-1-1-1H1a1.003 1.003 0 0 0-.71 1.71L4 6.41V12a1.003 1.003 0 0 0 1.71.71l2-2c.18-.18.29-.43.29-.71V6.41l3.71-3.71c.18-.17.29-.42.29-.7zm2.41 10 1.29-1.29c.19-.18.3-.43.3-.71a1.003 1.003 0 0 0-1.71-.71L13 10.59 11.71 9.3A.965.965 0 0 0 11 9a1.003 1.003 0 0 0-.71 1.71l1.3 1.29-1.29 1.29c-.19.18-.3.43-.3.71a1.003 1.003 0 0 0 1.71.71l1.29-1.3 1.29 1.29c.18.19.43.3.71.3a1.003 1.003 0 0 0 .71-1.71L14.41 12z" clip-rule="evenodd"/></svg>

<?xml version="1.0" encoding="utf-8"?>
<!-- Generator: Adobe Illustrator 18.0.0, SVG Export Plug-In . SVG Version: 6.00 Build 0)  -->
<svg version="1.1" id="Layer_1" xmlns="http://www.w3.org/2000/svg" xmlns:xlink="http://www.w3.org/1999/xlink" x="0px" y="0px"
	 viewBox="0 0 16 16" enable-background="new 0 0 16 16" xml:space="preserve">
<g id="remove_filter_1_">
	<g>
		<path fill-rule="evenodd" clip-rule="evenodd" d="M12,2c0-0.55-0.45-1-1-1H1C0.45,1,0,1.45,0,2c0,0.28,0.11,0.53,0.29,0.71L4,6.41
			V12c0,0.55,0.45,1,1,1c0.28,0,0.53-0.11,0.71-0.29l2-2C7.89,10.53,8,10.28,8,10V6.41l3.71-3.71C11.89,2.53,12,2.28,12,2z
			 M14.41,12l1.29-1.29C15.89,10.53,16,10.28,16,10c0-0.55-0.45-1-1-1c-0.28,0-0.53,0.11-0.71,0.29L13,10.59l-1.29-1.29
			C11.53,9.11,11.28,9,11,9c-0.55,0-1,0.45-1,1c0,0.28,0.11,0.53,0.29,0.71L11.59,12l-1.29,1.29C10.11,13.47,10,13.72,10,14
			c0,0.55,0.45,1,1,1c0.28,0,0.53-0.11,0.71-0.29L13,13.41l1.29,1.29C14.47,14.89,14.72,15,15,15c0.55,0,1-0.45,1-1
			c0-0.28-0.11-0.53-0.29-0.71L14.41,12z"/>
	</g>
</g>
</svg>
